X:577
T:Reel 577
M: 4/4
L:1/8
K: D Major
AFF2AFBF|AFF2GEB2|AFF2dFAF|G2EGFDDG|FAA2FAdB|AFF2GEE2|AFF2DFBF|AFEGFDD2|:d3fa3f|g2fgedBA|dfa2bfaf|gfegfdd2|dfa2a3f|g2fgeedB|ABdefbaf|dfegfdd2:|A3GFADF|GABGFADF|G3BA3G|FDEFDA,DE|F3GADFA|GFEFGABc|d2cdBAFA|GFEGFDD2:|.abc